X: 33560
T: Rakes Of Clonmel, The
R: jig
M: 6/8
K: Adorian
|:A/B/|cBA GED|EAA A2 B|cBc edc|BGG G2 e/f/|
gfg efg|dBG Bcd|ecA GED|EAA A2:|
|:c|a2b a2a|ede ~g3|Aab aec|def gdB|
a2b a2a|ede ~g3|e=fe dcB|cAG A2:|

